static/img/svg/server.svg

<svg xmlns="http://www.w3.org/2000/svg" width="24" height="24" viewBox="0 0 24 24"><path d="M21 3H3C2.448 3 2 3.447 2 4v5.991c0 .553.448 1 1 1h18c.553 0 1-.447 1-1V4C22 3.447 21.553 3 21 3zM20 8.991H4V5h16V8.991zM21 13H3c-.552 0-1 .447-1 1v6c0 .553.448 1 1 1h18c.553 0 1-.447 1-1v-6C22 13.447 21.553 13 21 13zM20 19H4v-4h16V19z"/><path d="M17 6H19V8H17zM14 6H16V8H14zM17 16H19V18H17zM14 16H16V18H14z"/></svg>

<svg xmlns="http://www.w3.org/2000/svg" width="24" height="24" viewBox="0 0 24 24"><path d="M21 3H3a1 1 0 0 0-1 1v5.991a1 1 0 0 0 1 1h18a1 1 0 0 0 1-1V4a1 1 0 0 0-1-1zm-1 5.991H4V5h16v3.991zM21 13H3a1 1 0 0 0-1 1v6a1 1 0 0 0 1 1h18a1 1 0 0 0 1-1v-6a1 1 0 0 0-1-1zm-1 6H4v-4h16v4z"/><path d="M17 6h2v2h-2zM14 6h2v2h-2zM17 16h2v2h-2zM14 16h2v2h-2z"/></svg>
